X: 8778
T: Cuckoo's Nest
R: polka
M: 2/4
K: Adorian
|:AA/B/ cd|ea ef|gg gB/c/|d/e/d/B/ Gd|
AA/B/ cd|ea ef|gB dc/B/|1 A2 AE:|2 A2 Aa-||
|:aa ab|ae ef|gg gB/c/|d/e/d/B/ Gd|
AA/B/ cd|ea ef|gB dc/B/|1 A2 Aa:|2 A2 AE||

